svgs/sharp-light/tty-answer.svg

<svg xmlns="http://www.w3.org/2000/svg" viewBox="0 0 640 512"><!--! Font Awesome Pro 6.6.0 by @fontawesome - https://fontawesome.com License - https://fontawesome.com/license (Commercial License) Copyright 2024 Fonticons, Inc. --><path d="M280.4 355.3l21.3 12.3L319 350.2l40.7-40.7L475.8 356 453.3 480l-5.3 0C218.2 480 32 293.7 32 64l0-5.3L156 36.2l46.5 116.1-40.7 40.7-17.3 17.3 12.3 21.3c29.6 51.4 72.4 94.1 123.7 123.7zM512 336L352 272l-55.6 55.6c-46.5-26.8-85.2-65.5-112-112L240 160 176 0 0 32 0 64C0 311.4 200.6 512 448 512l32 0 32-176zM344 64l-48 0 0 48 48 0 0-48zm0 96l-48 0 0 48 48 0 0-48zm48-96l0 48 48 0 0-48-48 0zm144 0l-48 0 0 48 48 0 0-48zm48 0l0 48 48 0 0-48-48 0zm48 96l-48 0 0 48 48 0 0-48zm-216 0l-32 0 0 32 32 0 96 0 32 0 0-32-32 0-96 0z"/></svg>

<svg xmlns="http://www.w3.org/2000/svg" viewBox="0 0 640 512"><!--! Font Awesome Pro 6.4.0 by @fontawesome - https://fontawesome.com License - https://fontawesome.com/license (Commercial License) Copyright 2023 Fonticons, Inc. --><path d="M280.4 355.3l21.3 12.3L319 350.2l40.7-40.7L475.8 356 453.3 480H448C218.2 480 32 293.7 32 64l0-5.3L156 36.2l46.5 116.1-40.7 40.7-17.3 17.3 12.3 21.3c29.6 51.4 72.4 94.1 123.7 123.7zM512 336L352 272l-55.6 55.6c-46.5-26.8-85.2-65.5-112-112L240 160 176 0 0 32 0 64C0 311.4 200.6 512 448 512h32l32-176zM344 64H296v48h48V64zm0 96H296v48h48V160zm48-96v48h48V64H392zm144 0H488v48h48V64zm48 0v48h48V64H584zm48 96H584v48h48V160zm-216 0H384v32h32 96 32V160H512 416z"/></svg>
